!!!ONB: MCCC : IGF0118_00 : Extracted Monophonic Melody
!!!COM: Fauré, Gabriel
!!!OTL: Valse Caprice No.1 in A, Op.30
!!!SCT: Op.30
!!!ODT: 1882///
**kern
*staff1
=1
*clefG2
*k[f#c#g#]
*A:
*M3/4
2.ff#
=2
4r
8ff#
8aa
8ddd
8fff#
=3
4.cc#
8a#
8b
8cc#
=4
2b
4a
=5
2.g#
=6
4r
8a
8cc#
8ff#
8aa
=7
4.e
8g#
8dd
8ff#
=8
8ddd
8ccc#
8aa
8ee
8cc#
8a
=9
2.ff#
=10
4r
8ff#
8aa
8ddd
8fff#
=11
4.cc#
8a#
8b
8cc#
=12
2b
4a
=13
2.g#
=14
4r
8cc
8dd#
8gg#
8ccc
=15
8r
8g#
8cc#
8ee#
4ccc
=16
4r
4r
4cccc
=17
8cccc#
8bbb#
8dddd#
8cccc#
8eeee#
8cccc#
=18
8ggg#
8eee#
8ccc#
8bb#
8ddd#
8ccc#
=19
8eee#
8ccc#
8gg#
8ee#
8cc#
8b#
=20
8dd#
8cc#
8ee#
8cc#
8g#
8e#
=21
8c#
8d
8d#
8e
8e#
8f#
=22
8g
8g#
8a
8a#
8b
8cc
=23
8cc#
8g
8g#
8a
8a#
8b
=24
8cc
8cc#
8dd
8dd#
8ee
8ee#
=25
4.ff#
8ff#
8ff#[
8ff#]
=26
8dd
8ff#
8gg#
8aa
8ddd
8fff#
=27
4.cc#
8a#
8b
8cc#
=28
2b
4a
=29
2.g#
=30
8r
8a
8cc#
8dd#
8ff#
8aa
=31
4.e
8g#
8dd
8ff#
=32
8ddd
8ccc#
8aa
8ee
8cc#
8a
=33
4.ff#
8ff#
8ff#[
8ff#]
=34
8dd
8ff#
8gg#
8aa
8ddd
8fff#
=35
4.cc#
8a#
16.b
32dd
8cc#
=36
2b
4a
=37
2.g#
=38
8r
8g#
8cc
8dd#
8gg#
8ccc
=39
8r
8g#
8cc#
8ee#
4ccc
=40
4r
4r
4cccc
=41
8cccc#
8bbb#
8dddd#
8cccc#
8eeee#
8cccc#
=42
8ggg#
8eee#
8ccc#
8bb#
8ddd#
8ccc#
=43
8eee#
8ccc#
8gg#
8ee#
8cc#
8b#
=44
8dd#
8cc#
8ee#
8cc#
8g#
8e#
=45
8c#
8d
8d#
8e
8e#
8f#
=46
8g
8g#
8a
8a#
8b
8cc
=47
8cc#
8dd
4ee[
4ee]
=48
4ee[
4ee]
4ee[
=49
8ee]
8dd#
8ff#
8ee
8dd
8b
=50
8g#
8a
8cc#
8ee
8gg#
8aa
=51
8ccc#
8ddd
4eee[
4eee]
=52
4eee[
4eee]
4eee[
=53
8eee]
8ddd#
8fff#
8eee
8ddd
8bb
=54
8gg#
8aa
8ccc#
8eee
4aaa
=55
8cc#
8dd
4ee[
4ee]
=56
4ee[
4ee]
4ee[
=57
8ee]
8dd#
8ff#
8ee
8dd
8b
=58
8g#
8a
8cc#
8ee
8gg#
8aa
=59
8ccc#
8ddd
4eee[
4eee]
=60
4eee[
4eee]
4eee[
=61
8eee]
8ddd#
8fff#
8eee
8ddd
8bb
=62
8gg#
8aa
8ccc#
8eee
4aaa
=63
*M4/4
1r
=64
*M3/4
8aa
8aa#
4ccc
4ccc
=65
2.ccc[
=66
4ccc]
4r
4r
=67
2.r
=68
4r
4r
4eee#
=69
2.eee#[
=70
4eee#]
4r
4r
=71
2.r
=72
4r
4r
4cccc
=73
2.cccc[
=74
4cccc]
4r
4r
=75
2.r
=76
4r
4r
4cc
=77
2.cc[
=78
4cc]
4r
4r
=79
2.r
=80
4r
4r
4ccc
=81
2.ccc[
=82
4ccc]
4r
4r
=83
2.r
=84
4r
4r
4eee#
=85
2.eee#[
=86
4eee#]
4r
4r
=87
2.r
=88
4r
4r
4cccc
=89
2.cccc[
=90
4cccc]
4r
4r
=91
2.r
=92
4r
4r
4cc
=93
2.cc[
=94
8cc]
8b
8dd
8cc
8a#
8g
=95
8e
8e#
8a
8cc
4ee#
=96
8e#
8g
4a
4cc
=97
2dd
4aa
=98
8e#
8g
4a
4aa
=99
2ddd
4aa
=100
8e#
8g
4a
4cc
=101
2dd
4aa
=102
8f#
8g
4a
4aa
=103
2ddd#
4aa#
=104
8g
8a
4a#
4ddd#
=105
8dd
8gg#
8bb
8ddd
4ccc
=106
8a
8a#
4cc
4eee#
=107
8dd#
8aa
8ccc
8ddd#
4ddd
=108
8a#
8cc
4dd
4aaa#
=109
4aaa
8ggg
8eee#
4eee
=110
8ddd
8ccc
4bb
8aa
8gg
=111
8ee#
8ee
8cc
8a#
8g
8e
=112
8e#
8g
4a
4cc
=113
2dd
4aa
=114
8e#
8g
4a
4aa
=115
2ddd
4aa
=116
8e#
8g
4a
4cc
=117
2dd
4aa
=118
8f#
8g
4a
4aa
=119
2ddd#
4aa#
=120
8g
8a
4a#
4ddd#
=121
8dd
8gg#
8bb
8ddd
4ccc
=122
8g#
8a
4b
4eee#
=123
8dd#
8aa
8ccc
8ddd#
4ccc#
=124
8a#
8b
4cc#
4aaa#
=125
4ggg#
8fff#
8eee#
4ddd#
=126
8ccc#
8bb
4aa#
8gg#
8ff#
=127
8ee#
8ee
8cc
8a#
8g
8e
=128
8c#
8d
8e
8e#
8g#
8b
=129
8ee#
8ee
8cc
8a#
8g
8e
=130
8c#
8d
8e
8e#
8g#
8b
=131
8cc#
8dd
8ee
8ee#
8aa#
8bb
=132
8ddd
8ccc
8aa#
8aa
8gg
8ff#
=133
8aa
8gg
8ee#
8ee
8dd
8cc#
=134
8dd#
8dd
8ee
8dd#
8ee#
8ee
=135
8ff#
8ee#
8gg
8ff#
8gg#
8gg
=136
8aa
8gg#
8aa#
8aa
8bb
8aa#
=137
8ccc
8bb
8ddd
8ccc
8bb
8ccc
=138
8ee#
8ee
8cc
8a#
8g
8e
=139
8c#
8d
8e
8e#
8g#
8b
=140
8gg#
8gg
8dd#
8cc#
8a#
8g
=141
8e
8e#
8f##
8g#
8b
8dd
=142
8gg#
8gg
8dd#
8cc#
8a#
8g
=143
8e
8e#
8f##
8g#
8b
8dd
=144
8ee
8ee#
8ff##
8gg#
8ccc#
8ddd
=145
8eee#
8ddd#
8ccc#
8bb#
8aa#
8aa
=146
8ccc
8aa#
8gg#
8ff##
8ee#
8ee
=147
8ff#
8ee#
8gg
8ff#
8gg#
8gg
=148
8aa
8gg#
8aa#
8aa
8bb
8aa#
=149
8ccc
8bb
8ccc#
8ccc
8ddd
8ccc#
=150
8ddd#
8ccc##
8eee#
8ddd#
8ccc##
8ddd#
=151
8ddd#
8ccc#
8aa#
8gg
8dd
8dd#
=152
8ff#
8ee
8aa
8gg#
8ccc#
8bb
=153
8ddd#
8ccc#
8aa#
8gg
8dd
8dd#
=154
8ff#
8ee
8aa
8gg#
8ccc#
8bb
=155
8ddd#
8ccc#
8aa#
8gg
8dd
8dd#
=156
8ff#
8ee
8ff#
8ee#
8gg
8ff#
=157
8gg#
8gg
8aa
8gg#
8aa#
8aa
=158
8bb
8aa#
8ccc
8bb
8ccc#
8ccc
=159
8ddd
8ccc#
8ddd#
8ddd
8eee
8ddd#
=160
8fff#
8eee
8dddd
8aaa#
8ggg#
8eee#
=161
8eee
8ddd
8bb
8aa#
8aa
8gg#
=162
8ff#
8ee
8ddd
8bb
8gg#
8ff#
=163
8ee
8dd
8b
8a#
8a
8g#
=164
8f#
8e
8dd
8b
8g#
8f#
=165
8e
8d
4r
4r
=166
2.r
=167
2.r
=168
4r
4r
8r
8e
=169
4r
8A
8d
8a
8dd
=170
8r
8B
8e
8g#
8b
8ee
=171
4r
8a
8dd
8aa
8ddd
=172
8r
8b
8ee
8gg#
8bb
8eee
=173
4r
8aa
8ddd
8aaa
8dddd
=174
4r
8dd
8aa
8ddd
8aaa
=175
4r
8a
8dd
8aa
8ddd
=176
4r
8f#
8a
8dd
8aa
=177
4r
8e
8f#
8a
8dd
=178
4r
8d
8f#
8a
8cc#
=179
4r
8c#
8d
8f#
8a
=180
4r
8B
8d
8f#
8a
=181
4r
8ff#
8aa
8ddd
8fff#
=182
4.cc#
8a#
8b
8cc#
=183
2b
4a
=184
2.g#
=185
4r
8a
8cc#
8ff#
8aa
=186
4.e
8g#
8dd
8ff#
=187
8ddd
8ccc#
8aa
8ee
8cc#
8a
=188
2.ff#
=189
4r
8ff#
8aa
8ddd
8fff#
=190
4.cc#
8a#
8b
8cc#
=191
2b
4a
=192
2.g#
=193
4r
8cc
8dd#
8gg#
8ccc
=194
8r
8g#
8cc#
8ee#
4ccc
=195
4r
4r
4cccc
=196
8cccc#
8bbb#
8dddd#
8cccc#
8eeee#
8cccc#
=197
8ggg#
8eee#
8ccc#
8bb#
8ddd#
8ccc#
=198
8eee#
8ccc#
8gg#
8ee#
8cc#
8b#
=199
8dd#
8cc#
8ee#
8cc#
8g#
8e#
=200
8c#
8d
8d#
8e
8e#
8f#
=201
8g
8g#
8a
8a#
8b
8cc
=202
8cc#
8g
8g#
8a
8a#
8b
=203
8cc
8cc#
8dd
8dd#
8ee
8ee#
=204
4.ff#
8ff#
8ff#[
8ff#]
=205
8dd
8ff#
8gg#
8aa
8ddd
8fff#
=206
4.cc#
8a#
8b
8cc#
=207
2b
4a
=208
2.g#
=209
8r
8a
8cc#
8dd#
8ff#
8aa
=210
4.e
8g#
8dd
8ff#
=211
8ddd
8ccc#
8aa
8ee
8cc#
8a
=212
4.ff#
8ff#
8ff#[
8ff#]
=213
8dd
8ff#
8gg#
8aa
8ddd
8fff#
=214
4.cc#
8a#
8b
8cc#
=215
2b
4a
=216
2.g#
=217
8r
8g#
8cc
8dd#
8gg#
8ccc
=218
8r
8g#
8cc#
8ee#
4ccc
=219
4r
4r
4cccc
=220
8cccc#
8bbb#
8dddd#
8cccc#
8eeee#
8cccc#
=221
8ggg#
8eee#
8ccc#
8bb#
8ddd#
8ccc#
=222
8eee#
8ccc#
8gg#
8ee#
8cc#
8b#
=223
8dd#
8cc#
8ee#
8cc#
8g#
8e#
=224
8c#
8d
8d#
8e
8e#
8f#
=225
8g
8g#
8a
8a#
8b
8cc
=226
8cc#
8dd
4ee[
4ee]
=227
4ee[
4ee]
4ee[
=228
8ee]
8dd#
8ff#
8ee
8dd
8b
=229
8g#
8a
8cc#
8ee
8gg#
8aa
=230
8ccc#
8ddd
4eee[
4eee]
=231
4eee[
4eee]
4eee[
=232
8eee]
8ddd#
8fff#
8eee
8ddd
8bb
=233
8gg#
8aa
8ccc#
8eee
4aaa
=234
8cc#
8dd
4ee[
4ee]
=235
4ee[
4ee]
4ee[
=236
8ee]
8dd#
8ff#
8ee
8dd
8b
=237
8g#
8a
8cc#
8ee
8gg#
8aa
=238
8ccc#
8ddd
4eee[
4eee]
=239
4eee[
4eee]
4eee[
=240
8eee]
8ddd#
8fff#
8eee
8ddd
8bb
=241
8gg#
8aa
8ccc#
8eee
8ggg#
8aaa
=242
8cccc#
8eeee
8gggg#
8aaaa
8ffff#
8eeee
=243
8cccc#
8aaa
8fff#
8eee
8ccc#
8aa
=244
8ff#
8ee
8cc#
8a
8f#
8e
=245
4c#
4r
4r
=246
4r
4a
4g#
=247
4a
4b
4a
=248
4g#
4f#
4e#
=249
4f#
4g#
4a
=250
4a#
4b
4cc#
=251
4dd#
4ee
4ff#
=252
4gg
4gg#
4ff#
=253
4ee
4dd#
4cc#
=254
4b
4a
4g#
=255
4a
4b
4a
=256
4g#
4f#
4e#
=257
4f#
4g#
4a
=258
4a#
4b
4cc#
=259
4dd#
4ee
4ff#
=260
4gg
4gg#
4ff#
=261
4ee
4dd#
4cc#
=262
4b
4cc
4b
=263
4cc
4dd
4cc
=264
4b
4a
4g#
=265
4a
4b
4cc
=266
4cc#
4dd
4ee
=267
4ff#
4gg
4aa
=268
4aa#
4bb
4aa
=269
4gg
4ff#
4ee
=270
4dd
4cc#
4dd
=271
4dd#
4cc##
4dd#
=272
4ee
4dd#
4ee
=273
4ee#
4dd##
4ee#
=274
4ff#
4ee#
4ff#
=275
4gg
4ff#
4gg
=276
4gg#
4ee
4b
=277
4a
4f#
4g#
=278
4bb
8gg#
8ee
8b
8g#
=279
4a
4f#
4g#
=280
2eee
32ccc#
32bb
32gg#
32ee
32cc#
32b
32g#
32e
=281
4a
4f#
4g#
=282
4e
4aa
4gg#
=283
4aa
4bb
4aa
=284
4gg#
4ff#
4ee#
=285
4ff#
4gg#
4aa
=286
4aa#
4bb
4ccc#
=287
4ddd#
4eee
4fff#
=288
4ggg
4ggg#
4fff#
=289
4eee
4ddd#
4ccc#
=290
4bb
4ccc
4bb
=291
4ccc
4ddd
4ccc
=292
4bb
4aa
4gg#
=293
4aa
4bb
4ccc
=294
4ccc#
4ddd
4eee
=295
4fff#
4ggg
4aaa
=296
4aaa#
4bbb
4aaa
=297
4ggg
4fff#
4eee
=298
4ddd
4ccc#
4ddd
=299
4ddd#
4ccc##
4ddd#
=300
4eee
4ddd#
4eee
=301
4eee#
4ddd##
4eee#
=302
4fff#
4eee#
4fff#
=303
4ggg
4fff#
4ggg
=304
4ggg#
4ee
4b
=305
4a
4f#
4a
=306
4g#
4cc#
4ee#
=307
4gg#
4ccc#
4eee#
=308
4fff#
4ff#
4dd
=309
4cc#
4a
4cc#
=310
4b
4ee
4gg#
=311
4bb
4eee
4ggg#
=312
4aaa
8aa
8ddd
8ff#
8aa
=313
8dd
8ff#
8a
8cc#
8dd#
8aa
=314
4gg#
4bb
4eee
=315
4ggg#
4bbb
4eeee
=316
4ffff#
8aaa
8dddd
8fff#
8aaa
=317
8ddd
8fff#
8aa
8ccc#
8ddd#
8aaa
=318
8eee
8ggg#
8ddd
8fff#
8ccc#
8aaa
=319
8eee
8ggg#
8ddd
8fff#
8ccc#
8aaa
=320
8eee
8ggg#
8ddd
8fff#
8ccc#
8aaa
=321
8eee
8ggg#
8ddd
8fff#
8ccc#
8aaa
=322
8ggg#
8fff##
8ggg#
8aaa
8bbb
8cccc#
=323
8eeee
8dddd
8cccc#
8bbb
8aaa
8ggg#
=324
8fff#
8eee
8ddd
8ccc#
8bb
8aa
=325
8gg#
8ff#
8ee
8dd
8cc#
8b
=326
8a
8b
4cc#
4eee
=327
2fff#
4cccc#
=328
8a
8b
4cc#
4cccc#
=329
2ffff#
4cccc#
=330
8a
8b
4cc#
4eee
=331
2fff#
4cccc#
=332
8a#
8b
4cc#
4cccc#
=333
2gggg
4dddd
=334
8b
8cc#
4dd
4ggg
=335
8ff#
8ccc
8ddd#
8fff#
4eee
=336
8cc#
8dd
4ee
4aaa
=337
8gg
8ccc#
8eee
8ggg
4fff#
=338
8dd
8ee
4ff#
4dddd
=339
4cccc#
8bbb
8aaa
4ggg#
=340
8fff#
8eee
4ddd#
8ccc#
8bb
=341
8aa
8gg#
8ff#
8ee
8dd
8b
=342
8aa
8bb
4ccc#
4eee
=343
2fff#
4cccc#
=344
8aa
8bb
4ccc#
4cccc#
=345
2ffff#
4cccc#
=346
8aa
8bb
4ccc#
4eee
=347
2fff#
4cccc#
=348
8aa#
8bb
4ccc#
4cccc#
=349
2gggg
4dddd
=350
8b
8cc#
4dd
4ggg
=351
8ff#
8ccc
8ddd#
8fff#
4eee
=352
8cc
8dd
4dd#
4aaa
=353
8gg
8ccc#
8eee
8ggg
4eee#
=354
8dd
8dd#
4ee#
4dddd
=355
4cccc
8aaa#
8aaa
4ggg
=356
8eee#
8ddd#
4ddd
8ccc
8aa#
=357
8aa
8gg#
8ee
8dd
8b
8g#
=358
8e#
8f#
8g#
8a
8cc
8dd#
=359
8aa
8gg#
8ee
8dd
8b
8g#
=360
8e#
8f#
8g#
8a
8cc
8dd#
=361
8ee#
8ff#
8gg#
8aa
8ddd
8ddd#
=362
8fff#
8eee
8ddd
8ccc#
8bb
8aa#
=363
8ccc#
8bb
8aa
8gg#
8ff#
8ee#
=364
8gg
8ff#
8gg#
8gg
8aa
8gg#
=365
8aa#
8aa
8bb
8aa#
8ccc
8bb
=366
8ccc#
8ccc
8ddd
8ccc#
8ddd#
8ddd
=367
8eee
8ddd#
8eee#
8eee
8fff#
8eee#
=368
8ggg
8fff#
8eee#
8fff#
8cccc#
8bbb
=369
8dddd
8bbb
8fff#
8ddd
8ccc#
8bb
=370
8gg
8ff#
8ee#
8ff#
8ccc#
8bb
=371
8ddd
8bb
8ff#
8dd
8cc#
8b
=372
8a
8g#
8f##
8g#
8ff#
8ee
=373
8ff#
8ee
8b
8a
8g#
8a
=374
8b
8a#
8g##
8a#
8ff#
8ee
=375
8ff#
8ee
8cc#
8b
8a#
8b
=376
8dd
8cc#
8b#
8cc#
8bb
8aa
=377
8bb
8aa
8ee
8dd
8cc#
8dd
=378
8ee
8dd#
8cc##
8dd#
8bb
8aa
=379
8bb
8aa
8ff#
8ee
8dd#
8ee
=380
8gg#
8ff#
8gg#
8ff#
8dd
8b
=381
4r
4b
4bb
=382
8gg#
8ff#
8gg#
8ff#
8dd#
8b
=383
4r
4b
4bb
=384
8gg#
8ff#
8gg#
8ff#
8dd
8b
=385
4r
4b
4bb
=386
4r
4bb
4bbb
=387
4r
4bbb
4aaaa
=388
4eee
4r
4r
=389
8r
8c#
8e
8a
8cc#
8b
=390
8a
8cc#
8ee
8aa
8ccc#
8bb
=391
8aa
8ccc#
8eee
8aaa
8cccc#
8bbb
=392
8aaa
8cccc#
8eeee
8aaaa
8ffff#
8eeee
=393
8cccc#
8aaa
8fff#
8eee
8ccc#
8aa
=394
8ff#
8ee
8cc#
8a
8f#
8e
=395
2.r
=396
4r
4r
8r
8ccc#
=397
4eee
4r
8r
8ccc
=398
4eee#
4r
8r
8eee#
=399
4ggg
4r
8r
8eee
=400
4ggg#
4r
4r
=401
2.r
=402
4eee
4r
4r
=403
2.r
=404
2.r
=405
2.r
=406
2.r
=407
4r
4r
8cc#
8cc#
=408
2.G#]
=409
2g#
4f#
=410
2.e
=411
2a
4cc#
=412
2.ee
=413
2dd#
4ff#
=414
2.aa
=415
2gg#
4ee
=416
2.dd
=417
2cc#
4ee
=418
2.gg
=419
2ff#
4dd#
=420
2.dd
=421
2cc#
4b
=422
2.g#
=423
4a
2cc#
=424
8r
8dd
8ee
8dd
4g#[
=425
4g#]
8r
8b#
8cc#
8cc
=426
2e
8r
8ee
=427
8ff#
8ee
2cc#
=428
8r
8ccc#
8ddd#
8ccc#
4dd#[
=429
4dd#]
8r
8ddd#
8aaa
8fff#
=430
2aa
4gg#
=431
4ddd#
4ee#[
4ee#]
=432
8r
8bb
8ccc#
8bb
4dd[
=433
4dd]
8r
8ccc#
8ggg
8ccc#
=434
2gg
4r
=435
8ccc#
8bb
2dd#
=436
8r
8ee#
8gg
8ee#
4cc#[
=437
4cc#]
8r
8dd
8ee
8dd
=438
2g#
8r
8cc#
=439
8aa
8cc#
2b
=440
8r
8dd#
8ccc
8dd#
4dd[
=441
4dd]
8r
8gg
8ddd#
8gg
=442
2ee
4r
=443
8eee#
8gg#
2gg
=444
8r
8bb
8ggg#
8bb
4ddd[
=445
4ddd]
8r
8ggg#
8cccc#
8ggg#
=446
2gg#
8r
8eee
=447
8aaa
8eee
2bb
=448
8r
8dd#
8cc
8dd#
4ddd[
=449
4ddd]
8r
8gg
8dd#
8gg
=450
2eee
8r
8gg#
=451
8ee#
8gg#
2ggg
=452
8r
8bb
8gg#
8bb
4dddd[
=453
4dddd]
8r
8ggg#
8ccc#
8ggg#
=454
2ggg#
8r
8eee
=455
8aa
8eee
2eee
=456
8r
8ee
8g#
8ee
4aa[
=457
4aa]
8r
8g
8e
8g
=458
2g#
8r
8e
=459
8A
8e
2e
=460
8e
8g
8ee
8g
8e
8g
=461
8ee
8gg
8eee
8gg
8ee
8gg
=462
8eee
8ggg
8eeee
8ggg
8eee
8ggg
=463
8eeee
8ggg
8eee
8ggg
8eeee
8ggg
=464
8eee
8ggg
8eeee
8ggg
8eee
8ggg
=465
8eeee
8cccc
8eee
8cccc
8eeee
8cccc
=466
8eee
8cccc
8eeee
8cccc
8eee
8cccc
=467
8eeee
8cccc
8eee
8cccc
8eeee
8cccc
=468
8eee
8cccc
8eeee
8cccc
8eee
8cccc
=469
8eeee
8cccc#
8eee
8cccc#
8eeee
8cccc#
=470
8eee
8cccc#
8eeee
8cccc#
8eee
8cccc#
=471
8eeee
8cccc#
8eee
8cccc#
8eeee
8cccc#
=472
8eee
8cccc#
8eeee
8cccc#
8eee
8cccc#
=473
8eeee
8cccc#
8eee
8cccc#
8eeee
8cccc#
=474
8eee
8cccc#
8eeee
8cccc#
8eee
8cccc#
=475
8cc#
8dd
4ee
4aa
=476
8ccc#
8ddd
4eee
4aaa
=477
4cccc#
4r
4r
=478
8r
8cc#
8r
8ff#
8r
8ccc#
=479
8r
8fff#
8r
8cccc#
8r
8ffff#
=480
4aaaa
4r
4r
=481
4aa
4r
4r
=482
4eee
4r
4r
=483
4ee
4r
4r
=484
4aaa
4r
4r
=485
4r
4r
8r
16r
16A
=486
2.A
==
*-
